X:12
T:SHINS AROUND THE FIRESIDE -- JIG
T:Humors of Glendart, The
R:jig
N:A version of Humors of Glendart.  See also Custom House, p 78.5
B:Coles pg 75.4
Z:John B. Walsh, <walsh:mat::h.ubc.ca> 5/17/02
M:6/8
L:1/8
K:D
vBAF "4"ADD|FDD "4"ADD|BAF "4"ADD |FEE EFG|
BAF "4"ADD|dfe (d2c)|fdB BAF|"4"AFE EF"4"A:|
vdfe (d2B)|ABA AFA|dfe (d2e)|gfe fdA|
dfe dBA|ABF GBd|fed cdB|"4"AFE EF"4"A:|
